svg/insta.svg

<svg version="1.1" id="Layer_1" xmlns="http://www.w3.org/2000/svg" x="0" y="0" viewBox="0 0 50.2 50.2" xml:space="preserve">
  <path fill="currentColor" d="M35.1 0h-20C6.8 0 0 6.8 0 15.1V35c0 8.3 6.8 15.1 15.1 15.1H35c8.3 0 15.1-6.8 15.1-15.1V15.1C50.2 6.8 43.4 0 35.1 0zm10.3 35.1c0 5.7-4.6 10.4-10.4 10.4H15.1c-5.7 0-10.4-4.6-10.4-10.4v-20c0-5.7 4.6-10.4 10.4-10.4H35c5.7 0 10.4 4.6 10.4 10.4v20z"/>
  <path fill="currentColor" d="M25.2 13c-6.8 0-12.4 5.6-12.4 12.4s5.6 12.4 12.4 12.4c6.8 0 12.4-5.6 12.4-12.4S32 13 25.2 13zm0 20.3c-4.4 0-7.9-3.6-7.9-7.9 0-4.4 3.6-7.9 7.9-7.9 4.4 0 7.9 3.6 7.9 7.9 0 4.4-3.6 7.9-7.9 7.9zM38.3 9.2c-1.6 0-2.9 1.3-2.9 2.9s1.3 2.9 2.9 2.9c1.6 0 2.9-1.3 2.9-2.9s-1.3-2.9-2.9-2.9z"/>
</svg>

<?xml version="1.0" encoding="utf-8"?>
<!-- Generator: Adobe Illustrator 25.2.3, SVG Export Plug-In . SVG Version: 6.00 Build 0)  -->
<svg version="1.1" id="Layer_1" xmlns="http://www.w3.org/2000/svg" xmlns:xlink="http://www.w3.org/1999/xlink" x="0px" y="0px"
	 viewBox="0 0 50.2 50.2" style="enable-background:new 0 0 50.2 50.2;" xml:space="preserve">
<style type="text/css">
	.st0{fill:#242322;}
</style>
<g>
	<path class="st0" d="M35.1,0H15.1C6.8,0,0,6.8,0,15.1v19.9c0,8.3,6.8,15.1,15.1,15.1h19.9c8.3,0,15.1-6.8,15.1-15.1V15.1
		C50.2,6.8,43.4,0,35.1,0z M45.4,35.1c0,5.7-4.6,10.4-10.4,10.4H15.1c-5.7,0-10.4-4.6-10.4-10.4V15.1c0-5.7,4.6-10.4,10.4-10.4h19.9
		c5.7,0,10.4,4.6,10.4,10.4V35.1z"/>
	<path class="st0" d="M25.2,13c-6.8,0-12.4,5.6-12.4,12.4s5.6,12.4,12.4,12.4c6.8,0,12.4-5.6,12.4-12.4S32,13,25.2,13z M25.2,33.3
		c-4.4,0-7.9-3.6-7.9-7.9c0-4.4,3.6-7.9,7.9-7.9c4.4,0,7.9,3.6,7.9,7.9C33.1,29.8,29.5,33.3,25.2,33.3z"/>
	<path class="st0" d="M38.3,9.2c-1.6,0-2.9,1.3-2.9,2.9s1.3,2.9,2.9,2.9c1.6,0,2.9-1.3,2.9-2.9S39.9,9.2,38.3,9.2z"/>
</g>
</svg>
